X:5
T:Sean Sa Ceo
R:Reel
S:Paddy Canny, Clare (fiddle)
H:Long G in bar 13 a slide, as is 'f' in last bar
D:Home tape of unknown provenance
N:As played
Z:Bernie Stocks
M:4/4
K:G
Acdc dGAc | AcdA (3cdc AG | Ad~d2 de(3.f.f.d | Aced c=FAc |
d2 (3.e.d.c dGAc | dcde (3cdc AG | Ad~d2 defd | Ac=Fd c=FAc ||
BG~G2 BGAc | BG~G2 c=FAc | BG~G2 DG~G2 | Ac=fd cFAc |
BG~G2 G3c | BG(3.G.G.G c=FAc | BG~G2 DG~G2 | Ac=fd cdef ||
~g2bg agbg | ~g2bg d3e | ~=f2af gfaf | =f2af de^fg |
~g2bg agbg | ~g2bg d3e | =fefa g^fde | =f2dc (3.A.A.F Ac ||
%Plays Sean Ryans jigs at this point - notated elsewhere
%
